X: 2854
T: Barge Inn, The
R: reel
M: 4/4
K: Gdorian
DF|:GFDF GFAF|GFDC A,EGE|FDCD FGAG|FGAc dAcA|
GFDF GFAF|GFDC A,EGE|FDCD FGAd|dcAF DEFD:|
|:G2AG dGAG|(3GGG AG dGAG|F2AF cFAF|F2AF cFAF|
G2AG dGAG|(3GGG AG dGAG|F2DE FGAd|dcAF DEFD:|

